X:1
T:Title
%%score { ( 1 4 ) | ( 2 3 ) }
L:1/8
M:6/8
K:Ab
V:1 treble nm="Grand Piano"
V:4 treble 
V:2 bass 
V:3 bass 
V:1
 z3 z2[Q:1/4=100] [Ec] | [Ec][=D_c][E=c] [CA]2 [DF] | [DF]3 E2 [A,EA] | [CA]3 z3 | %4
 [EB]3- [EB]2 [E_c] | [Ec][=D_c][E=c] [CA]2 [EG] | [EG]2 F- F2 F | E3 B3 | [CA]3- [CA]2 [EA] | %9
 B2 =A B2 c | d3 c2 B | A3 F3 | [CE]3- [CE]2 [CE] | F2 F F2 F | E2 A A2 G | A6- |[M:5/8] A-A- A3 |] %17
V:2
 z3 z2 [A,,A,] | [A,,A,]2 [A,,A,] [A,,A,]2 [A,,A,] | z3 C2 C, | F,6 | [E,G,]3- [E,G,]2 [E,G,] | %5
 [A,,A,]2 [A,,A,] [A,,A,]2 [C,A,] | z2 D- D2 [D,A,D] | [E,A,C]3 [E,G,D]3 | %8
 [A,,A,]3- [A,,A,]2 [C,A,] | [E,G,E]2 [E,_G,E] [E,=G,E]2 [E,A,E] | B,3 z3 | [F,A,C]3 [D,A,D]3 | %12
 [A,,A,]3- [A,,A,]2 [A,,A,] | [D,A,D]2 [D,A,D] [D,A,B,]2 [=D,A,_C] | %14
 [E,A,C]2 [E,CE] [E,B,D]2 [E,B,D] | z2 E, F,2 =E, |[M:5/8] E,-E,- E,3 |] %17
V:3
 x6 | x6 | [A,,A,]6 | z3 B,2 B,, | x6 | x6 | [D,A,]6 | x6 | x6 | x6 | [E,E]3- [E,A,E]2 [=E,G,D] | %11
 x6 | x6 | x6 | x6 | A,,6- |[M:5/8] A,,-A,,- A,,3 |] %17
V:4
 x6 | x6 | x6 | =D3- [DG]2 [A,DA] | x6 | x6 | x6 | x6 | x6 | x6 | x6 | x6 | x6 | x6 | x6 | %15
 [A,C]2 C D2 D |[M:5/8] C-C- C3 |] %17

